assets/icons/qvision/airline_seat_flat.svg

<svg xmlns="http://www.w3.org/2000/svg" height="24" viewBox="0 0 24 24" width="24"><path d="M0 0h24v24H0z" fill="none"/><path d="M22 11v2H9V7h9c2.21 0 4 1.79 4 4zM2 14v2h6v2h8v-2h6v-2H2zm5.14-1.9c1.16-1.19 1.14-3.08-.04-4.24-1.19-1.16-3.08-1.14-4.24.04-1.16 1.19-1.14 3.08.04 4.24 1.19 1.16 3.08 1.14 4.24-.04z"/></svg>

<svg width="24" height="24" viewBox="0 0 24 24" fill="none" xmlns="http://www.w3.org/2000/svg">
<g clip-path="url(#clip0_147_5886)">
<path d="M22 11V13H9V7H18C20.21 7 22 8.79 22 11ZM2 14V16H8V18H16V16H22V14H2ZM7.14 12.1C8.3 10.91 8.28 9.02 7.1 7.86C5.91 6.7 4.02 6.72 2.86 7.9C1.7 9.09 1.72 10.98 2.9 12.14C4.09 13.3 5.98 13.28 7.14 12.1Z" fill="#323232"/>
</g>
<defs>
<clipPath id="clip0_147_5886">
<rect width="24" height="24" fill="white"/>
</clipPath>
</defs>
</svg>
